app/dist/common/images/performance-food.svg

<svg height="18" width="18" xmlns="http://www.w3.org/2000/svg"><path d="m0 0h18v18h-18z" fill="#b5121b"/><path d="m13 6h-11.333l6.233.512 2.087.488h3.013zm0 2h-9.89l4.893.391 2.178.609h2.819zm0 2.03h-7.675l3.425.36 1.855.61h2.395zm0 1.97h-5.666l1.854.21 1.776.79h2.036z" fill="#fff"/></svg>

<!-- by TradingView --><svg width="18" height="18" xmlns="http://www.w3.org/2000/svg"><path fill="#B5121B" d="M0 0h18v18H0z"/><path d="M13 6H1.667l6.233.512L9.987 7H13V6zM13 8H3.11l4.893.391L10.181 9H13V8zM13 10.03H5.325l3.425.36 1.855.61H13v-.97zM13 12H7.334l1.854.21 1.776.79H13v-1z" fill="#fff"/></svg>
